X: 03043
T: JEAN MICHEL
C: Bob McQuillen Sept 77
B: Bob's Note Book 03 #43
%R: reel, polka
%D:1977
Z: 2020 John Chambers <jc:trillian.mit.edu>
M: C
L: 1/8
K: G
DE \
| G2GA BGBd | gage d2B2 | d2ge dBGB | dgdB A2DE |\
| G2GA BGBd | gage dBGB | dgeg dBGA | B2G2 G2  :|
|: Bd \
| g2ag f2d2 | e2ce d2B2 | c2Ac BGBd | edef d2ef |\
| gbag f2d2 | ecde d2B2 | cBAc BAGB | AGAB G2  :|
%%begintext align
%% Pour un jeun homme ici de
%% France, \'etudient \`a Nathaniel
%% Hawthorn College, Antrim, N.H.
%% Bon chance, Jean!
%%endtext

%%sep 1 1 500

%%sep 1 1 500

